public/img/casino-crm-dep-logo.svg

<?xml version="1.0" encoding="UTF-8"?>
<svg width="86px" height="80px" viewBox="0 0 86 80" version="1.1" xmlns="http://www.w3.org/2000/svg" xmlns:xlink="http://www.w3.org/1999/xlink">
    <title>casino_crm_dep_logo</title>
    <defs></defs>
    <g id="Screens" stroke="none" stroke-width="1" fill="none" fill-rule="evenodd">
        <g id="Multidepartment" transform="translate(-815.000000, -485.000000)" fill-rule="nonzero" fill="#7ED321">
            <g id="Group-5" transform="translate(179.000000, 467.000000)">
                <g id="Group-2-Copy" transform="translate(552.000000, 0.000000)">
                    <g id="casino_crm_dep_logo" transform="translate(84.000000, 18.000000)">
                        <path d="M84.1420455,15.4297694 C85.2595256,14.647044 85.8181818,13.5290566 85.8181818,12.0754717 C85.8181818,10.8456184 85.3991477,9.81132075 84.5610795,8.97274633 C83.7230114,8.13417191 82.7173295,7.7148847 81.5440341,7.7148847 C80.3707386,7.7148847 79.3650568,8.13417191 78.5269886,8.97274633 C77.6889205,9.81132075 77.2698864,10.8456184 77.2698864,12.0754717 C77.2698864,13.5292243 77.8285426,14.6473795 78.9460227,15.4297694 L78.9460227,42.0964361 L75.59375,42.0964361 L75.59375,9.55974843 L65.2017045,9.55974843 L65.2017045,6.03773585 L44.4176136,6.03773585 C43.9705881,4.360587 43.0487131,2.93501048 41.6519886,1.76100629 C40.2552642,0.587002096 38.6629347,0 36.875,0 C35.0870653,0 33.4947358,0.587002096 32.0980114,1.76100629 C30.7012869,2.93501048 29.7794119,4.360587 29.3323864,6.03773585 L8.54829545,6.03773585 L8.54829545,9.55974843 L0,9.55974843 L0,80 L75.59375,80 L75.59375,55.8490566 L80.6221591,55.8490566 L80.6221591,55.3459119 C83.5274062,54.2277568 84.9801136,52.1033124 84.9801136,48.9727463 C84.9801136,47.8545912 84.7007017,46.7924528 84.1420455,45.7861635 L84.1420455,15.4297694 Z M27.4886364,16.4360587 L48.1051136,16.4360587 L48.1051136,40.4192872 L27.4886364,40.4192872 L27.4886364,16.4360587 Z M3.35227273,16.4360587 L23.96875,16.4360587 L23.96875,40.4192872 L3.35227273,40.4192872 L3.35227273,16.4360587 Z M65.2017045,71.278826 L8.54829545,71.278826 L8.54829545,59.3710692 L65.2017045,59.3710692 L65.2017045,71.278826 Z M72.0738636,40.4192872 L51.4573864,40.4192872 L51.4573864,16.4360587 L72.0738636,16.4360587 L72.0738636,40.4192872 Z" id="Shape"></path>
                        <path d="M37.8181818,19.6363636 C35.5365989,19.6363636 33.197861,20.2011792 30.802139,21.3309797 L30.802139,19.6363636 L29.0909091,19.6363636 L29.0909091,30.1429832 L30.802139,30.1429832 C30.802139,30.0299523 30.8307166,29.8887908 30.8877005,29.7193292 C30.9446845,29.5498676 31.030246,29.2673751 31.144385,28.8720212 C31.2585241,28.4766673 31.4296471,28.109444 31.657754,27.7705207 C31.885861,27.4315975 32.228107,27.149105 32.684492,26.9232127 C33.140877,26.6973204 33.7112299,26.5842895 34.3957219,26.5842895 L36.7914439,26.6690203 C38.3885348,26.725451 39.3582888,26.6973204 39.7005348,26.5842895 C39.1301818,26.9232127 38.4456898,27.4032974 37.6470588,28.0247132 C36.8484278,28.6464678 35.7932834,29.8609991 34.4812834,31.6681377 C33.1692834,33.4757846 32.513369,35.2832621 32.513369,37.0909091 L41.4117647,37.0909091 C41.4117647,36.3000318 41.4403422,35.3115622 41.4973262,34.125331 C41.5543102,32.9390997 42.0392727,30.9619912 42.9518717,28.1941748 C43.8644706,25.4263583 45.0623316,23.1386267 46.5454545,21.3309797 L44.8342246,19.6363636 C42.5526417,20.7661642 40.2139037,20.7661642 37.8181818,19.6363636 Z" id="Shape"></path>
                        <path d="M55.4633716,27.9399823 C56.141218,27.0362436 57.1015569,26.5842895 58.3442189,26.5842895 L60.8014122,26.6690203 C62.4395975,26.725451 63.3716364,26.6973204 63.5975287,26.5842895 C63.0327132,26.9232127 62.3829974,27.4032974 61.6487202,28.0247132 C60.9144431,28.6464678 59.8976734,29.8609991 58.5984113,31.6681377 C57.2991492,33.4757846 56.6496028,35.2832621 56.6496028,37.0909091 L65.2921447,37.0909091 C65.2921447,36.3000318 65.3485755,35.3115622 65.4616064,34.125331 C65.5746372,32.9390997 66.054722,30.9619912 66.90203,28.1941748 C67.749338,25.4263583 68.9638694,23.1386267 70.5454545,21.3309797 L68.8508385,19.6363636 C66.478376,20.7661642 64.1623442,20.7661642 61.9029126,19.6363636 C59.5304501,19.6363636 57.2144184,20.2011792 54.9549868,21.3309797 L54.9549868,19.6363636 L53.0909091,19.6363636 L53.0909091,30.1429832 L54.9549868,30.1429832 L55.4633716,27.9399823 Z" id="Shape"></path>
                        <path d="M13.8181818,19.6363636 C11.4224599,19.6363636 9.08372193,20.2011792 6.80213904,21.3309797 L6.80213904,19.6363636 L5.09090909,19.6363636 L5.09090909,30.1429832 L6.80213904,30.1429832 C6.80213904,29.80406 6.83071658,29.4368367 6.88770053,29.0414828 C6.94468449,28.6461289 7.25852406,28.137744 7.82887701,27.5163283 C8.39922995,26.8949126 9.19786096,26.5842895 10.2245989,26.5842895 C10.338738,26.5842895 11.1943529,26.6125896 12.7914439,26.6690203 C14.3885348,26.725451 15.3013048,26.6973204 15.5294118,26.5842895 C15.0730267,26.9232127 14.4456898,27.4032974 13.6470588,28.0247132 C12.8484278,28.6464678 11.7932834,29.8609991 10.4812834,31.6681377 C9.16928342,33.4757846 8.51336898,35.2832621 8.51336898,37.0909091 L17.2406417,37.0909091 C17.2406417,36.3000318 17.2976257,35.3115622 17.4117647,34.125331 C17.5259037,32.9390997 18.0106952,30.9619912 18.8663102,28.1941748 C19.7219251,25.4263583 20.9483636,23.1386267 22.5454545,21.3309797 L20.8342246,19.6363636 C18.4385027,20.7661642 16.0997647,20.7661642 13.8181818,19.6363636 Z" id="Shape"></path>
                    </g>
                </g>
            </g>
        </g>
    </g>
</svg>

<svg xmlns="http://www.w3.org/2000/svg" width="86" height="80" viewBox="0 0 86 80">
    <g fill="#4A90E2" fill-rule="nonzero">
        <path d="M84.142 15.43c1.118-.783 1.676-1.9 1.676-3.355 0-1.23-.419-2.264-1.257-3.102-.838-.839-1.844-1.258-3.017-1.258-1.173 0-2.179.42-3.017 1.258-.838.838-1.257 1.873-1.257 3.102 0 1.454.559 2.572 1.676 3.355v26.666h-3.352V9.56H65.202V6.038H44.418c-.447-1.677-1.37-3.103-2.766-4.277C40.255.587 38.662 0 36.875 0c-1.788 0-3.38.587-4.777 1.761-1.397 1.174-2.319 2.6-2.766 4.277H8.548V9.56H0V80h75.594V55.85h5.028v-.504c2.905-1.118 4.358-3.243 4.358-6.373a6.47 6.47 0 0 0-.838-3.187V15.43zm-56.653 1.006h20.616V40.42H27.49V16.436zm-24.137 0H23.97V40.42H3.352V16.436zm61.85 54.843H8.548V59.37h56.654V71.28zm6.872-30.86H51.457V16.436h20.617V40.42z"/>
        <path d="M37.818 19.636c-2.281 0-4.62.565-7.016 1.695v-1.695h-1.711v10.507h1.711c0-.113.029-.254.086-.424.057-.17.142-.452.256-.847.115-.395.286-.763.514-1.101.228-.34.57-.622 1.026-.848.457-.226 1.027-.339 1.712-.339l2.395.085c1.598.056 2.567.028 2.91-.085-.57.34-1.255.82-2.054 1.44-.799.622-1.854 1.837-3.166 3.644-1.312 1.808-1.968 3.615-1.968 5.423h8.899c0-.791.028-1.78.085-2.966.057-1.186.542-3.163 1.455-5.93.912-2.769 2.11-5.056 3.593-6.864l-1.71-1.695c-2.282 1.13-4.621 1.13-7.017 0zM55.463 27.94c.678-.904 1.639-1.356 2.881-1.356l2.457.085c1.639.056 2.57.028 2.797-.085-.565.34-1.215.82-1.95 1.44-.734.622-1.75 1.837-3.05 3.644-1.299 1.808-1.948 3.615-1.948 5.423h8.642c0-.791.057-1.78.17-2.966.113-1.186.593-3.163 1.44-5.93.847-2.769 2.062-5.056 3.643-6.864l-1.694-1.695c-2.373 1.13-4.689 1.13-6.948 0-2.373 0-4.689.565-6.948 1.695v-1.695h-1.864v10.507h1.864l.508-2.203zM13.818 19.636c-2.396 0-4.734.565-7.016 1.695v-1.695H5.091v10.507h1.711c0-.339.029-.706.086-1.102.057-.395.37-.903.94-1.525.571-.621 1.37-.932 2.397-.932.114 0 .97.029 2.566.085 1.598.056 2.51.028 2.738-.085-.456.34-1.083.82-1.882 1.44-.799.622-1.854 1.837-3.166 3.644-1.312 1.808-1.968 3.615-1.968 5.423h8.728c0-.791.057-1.78.17-2.966.115-1.186.6-3.163 1.455-5.93.856-2.769 2.082-5.056 3.68-6.864l-1.712-1.695c-2.395 1.13-4.734 1.13-7.016 0z"/>
    </g>
</svg>
